X: 06052
T: McCARTHY'S WEDDING
C: Bob McQuillen 27 Feb 82
B: Bob's Note Book 6 #52
%R: waltz
Z: 2021 John Chambers <jc:trillian.mit.edu>
M: 3/4
L: 1/8
K: G	% and Em
BA \
| G2 GB AG | E2 D2 GA | BA GA Bd | e4 ef |\
| g2 gb ag | e2 d2 BA | B2 e2 d2 | e4 BA |
| GA GB AG | E2 D2 GA | BA GA Bd | e4 ef |\
| g2 ag eg | d2 B2 GB | A2 G2 G2 | G4 |]
[| Bd \
| e2 ed BA | G2 E2 Bd | e2 ed BA | GA GA Bd |\
| e2 ed Bd | ef g2 ge | d2 B2 G2 | A4 GA |
| B2 ed ef | ge d2 Bd | ed ef ga | bg e2 ga |\
| b2 gb ag | eg dB GA | B2 G2 G2 | G4 |]
%%begintext align
%% With much
%% love always to old friend Jim [CH,] and his
%% lovely new bride, Gwendolyn - Here's to
%% a warm sun and a smooth road!
%%endtext
N: The [CH,] is at attempt to type the odd "last name" in the text.
N: Presumably it was some sort of in-joke that we won't understand.

%%sep 1 1 500

%%sep 1 1 500

